/* XPM */
static const char * lock_xpm[] = {
"48 48 319 2",
"  	c None",
". 	c #006C9C",
"+ 	c #1C7CA7",
"@ 	c #3A8AB1",
"# 	c #4E94B8",
"$ 	c #4D94B8",
"% 	c #4D93B8",
"& 	c #4C93B6",
"* 	c #4B92B6",
"= 	c #4B92B5",
"- 	c #4A91B5",
"; 	c #4991B5",
"> 	c #4990B4",
", 	c #4890B4",
"' 	c #468FB4",
") 	c #458DB3",
"! 	c #448DB3",
"~ 	c #438CB3",
"{ 	c #438CB2",
"] 	c #428BB2",
"^ 	c #418AB1",
"/ 	c #408AB1",
"( 	c #3F89B1",
"_ 	c #2E81AB",
": 	c #1676A4",
"< 	c #3B8BB1",
"[ 	c #8DB4CE",
"} 	c #A0BED4",
"| 	c #9FBCD3",
"1 	c #9EBBD2",
"2 	c #9CBAD2",
"3 	c #9BB9D1",
"4 	c #9AB9D1",
"5 	c #99B8D0",
"6 	c #96B5CF",
"7 	c #95B5CF",
"8 	c #93B3CE",
"9 	c #92B2CD",
"0 	c #91B2CD",
"a 	c #8FB0CC",
"b 	c #8DAFCC",
"c 	c #8CAFCA",
"d 	c #8AAECA",
"e 	c #89ACC9",
"f 	c #87AAC8",
"g 	c #86AAC8",
"h 	c #85A9C7",
"i 	c #82A8C6",
"j 	c #81A7C6",
"k 	c #80A6C6",
"l 	c #7FA5C5",
"m 	c #7DA5C5",
"n 	c #7CA2C3",
"o 	c #6A9CBE",
"p 	c #2C80AA",
"q 	c #07729F",
"r 	c #79AAC7",
"s 	c #A2BED4",
"t 	c #77ACC9",
"u 	c #4D9CC0",
"v 	c #4C9BBF",
"w 	c #4B9BBF",
"x 	c #4A9ABF",
"y 	c #499ABF",
"z 	c #4899BF",
"A 	c #4B99BF",
"B 	c #4F99BE",
"C 	c #5399BF",
"D 	c #5599BF",
"E 	c #5799BE",
"F 	c #5899BE",
"G 	c #5A99BE",
"H 	c #5C99BE",
"I 	c #5D99BE",
"J 	c #5E99BE",
"K 	c #5F99BE",
"L 	c #6099BE",
"M 	c #6199BE",
"N 	c #6299BE",
"O 	c #6399BD",
"P 	c #6F9DC0",
"Q 	c #79A1C3",
"R 	c #779FC2",
"S 	c #5792B8",
"T 	c #056F9E",
"U 	c #82B2CD",
"V 	c #1183B2",
"W 	c #007DAE",
"X 	c #007EAF",
"Y 	c #007EB0",
"Z 	c #007FB1",
"` 	c #027FB1",
" .	c #0C80B1",
"..	c #1681B2",
"+.	c #1C82B3",
"@.	c #2282B3",
"#.	c #2685B4",
"$.	c #2C86B4",
"%.	c #2F86B4",
"&.	c #3487B5",
"*.	c #3888B6",
"=.	c #3B89B6",
"-.	c #3F8AB6",
";.	c #438BB8",
">.	c #468CB8",
",.	c #4A8DB8",
"'.	c #4D8FB9",
").	c #5090BA",
"!.	c #5893BB",
"~.	c #6F9DBF",
"{.	c #749EBF",
"].	c #4D8DB4",
"^.	c #0780AF",
"/.	c #5491BA",
"(.	c #5691BA",
"_.	c #5A93BB",
":.	c #6D9BBE",
"<.	c #6E9CBF",
"[.	c #267EA9",
"}.	c #5FA8CD",
"|.	c #62A9CD",
"1.	c #67AACE",
"2.	c #4D99C0",
"3.	c #5C94BC",
"4.	c #6195BC",
"5.	c #6A9ABE",
"6.	c #5993B9",
"7.	c #3594BF",
"8.	c #B9DFF2",
"9.	c #FFFFFF",
"0.	c #FCFFFF",
"a.	c #9CC7E2",
"b.	c #5F95BC",
"c.	c #6196BC",
"d.	c #6597BD",
"e.	c #6397BD",
"f.	c #1074A1",
"g.	c #75BAD8",
"h.	c #F0FDFF",
"i.	c #6EA7C9",
"j.	c #6497BD",
"k.	c #6095BC",
"l.	c #217CA8",
"m.	c #679FC5",
"n.	c #6899BD",
"o.	c #6396BD",
"p.	c #2B7FAB",
"q.	c #459DC5",
"r.	c #FBFFFF",
"s.	c #99C7E1",
"t.	c #71ACCF",
"u.	c #73ACCF",
"v.	c #C7E3F3",
"w.	c #F2FFFF",
"x.	c #5892BA",
"y.	c #2A7FAB",
"z.	c #D9F2FF",
"A.	c #C2E2F2",
"B.	c #4290BB",
"C.	c #9FC4DD",
"D.	c #6D9CBF",
"E.	c #6296BD",
"F.	c #277EAB",
"G.	c #3B95BF",
"H.	c #EDFCFF",
"I.	c #73A8CA",
"J.	c #F5FFFF",
"K.	c #257DAA",
"L.	c #8DC4DF",
"M.	c #7CB4D4",
"N.	c #CEE5F5",
"O.	c #76A5C7",
"P.	c #729DBF",
"Q.	c #4C8DB9",
"R.	c #237DAA",
"S.	c #CDE9F9",
"T.	c #92BBD8",
"U.	c #90B6D3",
"V.	c #6096BC",
"W.	c #488CB8",
"X.	c #217CA9",
"Y.	c #DCF3FF",
"Z.	c #E1F5FF",
"`.	c #7DABCC",
" +	c #A8C8DF",
".+	c #769FC0",
"++	c #5F96BD",
"@+	c #428BB8",
"#+	c #1F7BA9",
"$+	c #5E96BD",
"%+	c #3E8AB6",
"&+	c #1B7BA9",
"*+	c #6FACCF",
"=+	c #72ACCF",
"-+	c #75AECF",
";+	c #77AECF",
">+	c #7BAFD0",
",+	c #7DB0D0",
"'+	c #7FB1D1",
")+	c #81B2D1",
"!+	c #85B2D1",
"~+	c #87B3D1",
"{+	c #88B4D2",
"]+	c #8AB5D3",
"^+	c #8DB5D3",
"/+	c #8FB6D3",
"(+	c #91B8D4",
"_+	c #93B9D4",
":+	c #7BA2C3",
"<+	c #5D96BD",
"[+	c #3989B6",
"}+	c #1979A8",
"|+	c #88BDDA",
"1+	c #8FB3D0",
"2+	c #7EA5C5",
"3+	c #5C97BE",
"4+	c #3487B4",
"5+	c #1779A8",
"6+	c #6CABCE",
"7+	c #80A7C6",
"8+	c #5A97BD",
"9+	c #2E86B4",
"0+	c #1378A8",
"a+	c #A7D0E7",
"b+	c #95B6D1",
"c+	c #83A8C6",
"d+	c #5997BE",
"e+	c #2985B4",
"f+	c #1177A8",
"g+	c #A9D1E7",
"h+	c #7EB0D0",
"i+	c #80B1D1",
"j+	c #82B2D1",
"k+	c #85B3D1",
"l+	c #89B4D2",
"m+	c #8BB5D3",
"n+	c #92B8D4",
"o+	c #94B9D4",
"p+	c #95B9D4",
"q+	c #97BBD5",
"r+	c #B9D2E6",
"s+	c #A1BFD8",
"t+	c #5797BE",
"u+	c #2283B3",
"v+	c #0D77A8",
"w+	c #ABD1E7",
"x+	c #9BBCD5",
"y+	c #A2C0D8",
"z+	c #5597BE",
"A+	c #1A82B3",
"B+	c #0877A7",
"C+	c #ACD1E7",
"D+	c #9DBCD5",
"E+	c #A5C2DA",
"F+	c #8BAECA",
"G+	c #1081B2",
"H+	c #0176A7",
"I+	c #AFD2E8",
"J+	c #9EBDD7",
"K+	c #A7C3DA",
"L+	c #8DB0CC",
"M+	c #4F99BF",
"N+	c #0076A7",
"O+	c #B1D2E8",
"P+	c #A0BED8",
"Q+	c #A8C4DB",
"R+	c #91B1CD",
"S+	c #4999BF",
"T+	c #0075A6",
"U+	c #B2D3E8",
"V+	c #A2BFD8",
"W+	c #ABC6DC",
"X+	c #B3D4E9",
"Y+	c #A5C2D9",
"Z+	c #ACC7DD",
"`+	c #4B9BC0",
" @	c #B5D4E9",
".@	c #E9F7FF",
"+@	c #EBF8FF",
"@@	c #ECF8FF",
"#@	c #EDF9FF",
"$@	c #EEF9FF",
"%@	c #EFF9FF",
"&@	c #EFFAFF",
"*@	c #F0FAFF",
"=@	c #F1FBFF",
"-@	c #AFC8DD",
";@	c #99B8D1",
">@	c #4C9CC0",
",@	c #0075A5",
"'@	c #AACDE3",
")@	c #9FBDD5",
"!@	c #649BC0",
"~@	c #DCEBF7",
"{@	c #9EBCD3",
"]@	c #4E9DC0",
"^@	c #0074A5",
"/@	c #DFF0FB",
"(@	c #F2FBFF",
"_@	c #F2FCFF",
":@	c #F3FCFF",
"<@	c #F5FDFF",
"[@	c #D3E4F2",
"}@	c #A0BDD4",
"|@	c #4F9EC2",
"1@	c #007CAC",
"2@	c #0072A2",
"3@	c #A2BFD4",
"4@	c #278DB6",
"5@	c #006F9F",
"6@	c #91B8D0",
"7@	c #0079AA",
"8@	c #9BBCD3",
"9@	c #1D89B4",
"0@	c #007BAC",
"a@	c #0072A1",
"b@	c #5090B5",
"c@	c #5591B6",
"d@	c #006D9D",
"                                                                                                ",
"                                                                                                ",
"                                                                                                ",
"                                                                                                ",
"                    . . . . . . . . . . . . . . . . . . . . . . . . . . . .                     ",
"                . . . + @ # $ % & * = - ; > , ' ' ) ! ~ { ] ] ^ / / ( _ : . . .                 ",
"              . . < [ } | 1 2 3 4 5 6 7 8 9 0 a b c d e f g h i j k l m n o p . .               ",
"            . q r s } t u u v w w x x y z A B C D E F G H I J K L M N O P Q R S T .             ",
"          . . r s U V W W W W X Y Y Z Z `  ...+.@.#.$.%.&.*.=.-.;.>.,.'.).!.~.{.].. .           ",
"          . < s U ^.W W W W X Y Y Z Z `  ...+.@.#.$.%.&.*.=.-.;.>.,.'.)./.(._.:.<.[..           ",
"        . . [ } V W W W W X Y Y Z Z `  ...+.}.|.1.2.&.*.=.-.;.>.,.'.)./.(.!.3.4.5.6.. .         ",
"        . + } t W W W W X Y Y Z Z `  .7.8.9.9.9.9.9.0.a.-.;.>.,.'.)./.(.!.3.b.c.d.e.f..         ",
"        . @ | u W W W X Y Y Z Z `  .g.9.9.9.9.9.9.9.9.9.h.i.,.'.)./.(.!.3.b.c.j.j.k.l..         ",
"        . # 1 u W W X Y Y Z Z `  .g.9.9.9.9.9.9.9.9.9.9.9.9.m.)./.(.!.3.b.c.j.n.o.3.p..         ",
"        . $ 2 v W X Y Y Z Z `  .q.9.9.9.9.r.s.t.u.v.9.9.9.9.w./.(.!.3.b.c.j.n.5.e.x.y..         ",
"        . % 3 w X Y Y Z Z `  ...z.9.9.9.A.B.*.=.-.;.i.9.9.9.9.C.!.3.b.c.j.n.5.D.E./.F..         ",
"        . & 4 w Y Y Z Z `  ...G.9.9.9.H.&.*.=.-.;.>.,.I.9.9.9.J.3.b.c.j.n.5.D.<.E.).K..         ",
"        . * 5 x Y Z Z `  ...+.L.9.9.9.M.*.=.-.;.>.,.'.).N.9.9.9.O.c.j.n.5.D.<.P.c.Q.R..         ",
"        . = 6 x Z Z `  ...+.@.S.9.9.9.*.=.-.;.>.,.'.)./.T.9.9.9.U.j.n.5.D.<.P.{.V.W.X..         ",
"        . - 7 y Z `  ...+.@.#.Y.9.9.Z.=.-.;.>.,.'.)./.(.`.9.9.9. +n.5.D.<.P.{..+++@+#+.         ",
"        . ; 8 z `  ...+.@.#.$.%.&.*.=.-.;.>.,.'.)./.(.!.3.b.c.j.n.5.D.<.P.{..+Q $+%+&+.         ",
"        . > 9 A  ...+.@.#.$.%.B.*+=+-+;+>+,+'+)+!+~+{+]+^+/+(+_+5.D.<.P.{..+Q :+<+[+}+.         ",
"        . , 0 B ..+.@.#.$.%.|+9.9.9.9.9.9.9.9.9.9.9.9.9.9.9.9.9.9.1+P.{..+Q :+2+3+4+5+.         ",
"        . ' a C +.@.#.$.%.6+9.9.9.9.9.9.9.9.9.9.9.9.9.9.9.9.9.9.9.9.{..+Q :+2+7+8+9+0+.         ",
"        . ' b D @.#.$.%.&.a+9.9.9.9.9.9.9.9.9.9.9.9.9.9.9.9.9.9.9.9.b+Q :+2+7+c+d+e+f+.         ",
"        . ) c E #.$.%.&.*.g+9.9.9.h+i+j+k+~+l+m+^+U.n+o+p+q+r+9.9.9.s+:+2+7+c+g t+u+v+.         ",
"        . ! d F $.%.&.*.=.w+9.9.9.'.)./.(.!.3.b.c.j.n.5.D.<.x+9.9.9.y+2+7+c+g e z+A+B+.         ",
"        . ~ e G %.&.*.=.-.C+9.9.9.)./.(.!.3.b.c.j.n.5.D.<.P.D+9.9.9.E+7+c+g e F+C G+H+.         ",
"        . { f H &.*.=.-.;.I+9.9.9./.(.!.3.b.c.j.n.5.D.<.P.{.J+9.9.9.K+c+g e F+L+M+` N+.         ",
"        . ] g I *.=.-.;.>.O+9.9.9.(.!.3.b.c.j.n.5.D.<.P.{..+P+9.9.9.Q+g e F+L+R+S+Z T+.         ",
"        . ] h J =.-.;.>.,.U+9.9.9.!.3.b.c.j.n.5.D.<.P.{..+Q V+9.9.9.W+e F+L+R+8 y Y T+.         ",
"        . ^ i K -.;.>.,.'.X+9.9.9.3.b.c.j.n.5.D.<.P.{..+Q :+Y+9.9.9.Z+F+L+R+8 6 `+Y T+.         ",
"        . / j L ;.>.,.'.). @9.9.9..@+@+@@@@@#@$@$@%@&@*@*@=@r.9.9.9.-@L+R+8 6 ;@>@X ,@.         ",
"        . / k M >.,.'.)./.'@9.9.9.9.9.9.9.9.9.9.9.9.9.9.9.9.9.9.9.9.)@R+8 6 ;@3 u W ,@.         ",
"        . ( l N ,.'.)./.(.!@9.9.9.9.9.9.9.9.9.9.9.9.9.9.9.9.9.9.9.~@R+8 6 ;@3 {@]@W ^@.         ",
"        . _ m O '.)./.(.!.3.O./@@@@@#@$@$@%@&@*@*@=@(@_@:@:@<@<@[@R+8 6 ;@3 {@}@|@1@2@.         ",
"        . : n P )./.(.!.3.b.c.j.n.5.D.<.P.{..+Q :+2+7+c+g e F+L+R+8 6 ;@3 {@}@3@4@1@5@.         ",
"        . . o Q !.(.!.3.b.c.j.n.5.D.<.P.{..+Q :+2+7+c+g e F+L+R+8 6 ;@3 {@}@3@6@1@7@. .         ",
"          . p R ~._.3.b.c.j.n.5.D.<.P.{..+Q :+2+7+c+g e F+L+R+8 6 ;@3 {@}@3@8@9@0@a@.           ",
"          . . b@{.:.4.c.j.n.5.D.<.P.{..+Q :+2+7+c+g e F+L+R+8 6 ;@3 {@}@3@6@9@0@N+. .           ",
"            . T c@<.5.d.j.o.e.E.E.c.V.++$+<+3+8+d+t+z+C M+S+y `+>@u ]@|@4@1@0@N+d@.             ",
"              . . [.6.e.k.3.x./.).Q.W.@+%+[+4+9+e+u+A+G+` Z Y Y X W W 1@1@7@a@. .               ",
"                . . . f.l.p.y.F.K.R.X.#+&+}+5+0+f+v+B+H+N+T+T+T+,@,@^@2@5@. . .                 ",
"                    . . . . . . . . . . . . . . . . . . . . . . . . . . . .                     ",
"                                                                                                ",
"                                                                                                ",
"                                                                                                ",
"                                                                                                "};
