/* XPM */
static char * xpad2_xpm[] = {
"48 48 279 2",
"  	c None",
". 	c #47470A",
"+ 	c #61610D",
"@ 	c #343407",
"# 	c #242404",
"$ 	c #AFAE19",
"% 	c #EFEE22",
"& 	c #EFEF22",
"* 	c #E3E221",
"= 	c #A9A818",
"- 	c #5E5E0D",
"; 	c #333307",
"> 	c #252506",
", 	c #262605",
"' 	c #E7E622",
") 	c #F1F024",
"! 	c #F1F124",
"~ 	c #E2E122",
"{ 	c #A5A518",
"] 	c #5B5B0D",
"^ 	c #333107",
"/ 	c #363608",
"( 	c #F2F125",
"_ 	c #F2F225",
": 	c #F3F226",
"< 	c #F0EF23",
"[ 	c #DDDC1F",
"} 	c #A09F16",
"| 	c #55550B",
"1 	c #2F2F06",
"2 	c #232304",
"3 	c #6C6C10",
"4 	c #F3F326",
"5 	c #F4F327",
"6 	c #F4F427",
"7 	c #EEED21",
"8 	c #ECEB1F",
"9 	c #D7D61B",
"0 	c #9A9914",
"a 	c #504F09",
"b 	c #2E2D05",
"c 	c #212103",
"d 	c #B6B61C",
"e 	c #F5F428",
"f 	c #F5F528",
"g 	c #F6F529",
"h 	c #F6F629",
"i 	c #EEEE21",
"j 	c #EDEC20",
"k 	c #EAE91D",
"l 	c #E9E81C",
"m 	c #E7E61A",
"n 	c #D0CF17",
"o 	c #939210",
"p 	c #4B4B08",
"q 	c #2B2B04",
"r 	c #211F03",
"s 	c #272705",
"t 	c #ECEB26",
"u 	c #F7F62A",
"v 	c #F7F72A",
"w 	c #F8F72B",
"x 	c #EBEA1E",
"y 	c #E8E71B",
"z 	c #E6E519",
"A 	c #E5E418",
"B 	c #E3E216",
"C 	c #E2E115",
"D 	c #C8C711",
"E 	c #8B890B",
"F 	c #474705",
"G 	c #292902",
"H 	c #1E1E02",
"I 	c #393809",
"J 	c #F8F82B",
"K 	c #F9F92C",
"L 	c #E4E317",
"M 	c #E1DF14",
"N 	c #DFDE12",
"O 	c #DEDC11",
"P 	c #DCDB0F",
"Q 	c #C0BF0C",
"R 	c #848307",
"S 	c #414003",
"T 	c #272701",
"U 	c #717112",
"V 	c #FAFA2D",
"W 	c #FBFB2E",
"X 	c #FAF92D",
"Y 	c #F9F82C",
"Z 	c #F0F023",
"` 	c #E6E419",
" .	c #E3E116",
"..	c #E1E014",
"+.	c #DBD90E",
"@.	c #D9D80C",
"#.	c #D8D60B",
"$.	c #D7D50A",
"%.	c #BAB909",
"&.	c #807F06",
"*.	c #3D3D03",
"=.	c #262601",
"-.	c #BBBA1E",
";.	c #FBFA2E",
">.	c #FCFC2F",
",.	c #E0DE13",
"'.	c #DEDD11",
").	c #DDDB10",
"!.	c #D5D30A",
"~.	c #212001",
"{.	c #282807",
"].	c #EFEE27",
"^.	c #FDFD30",
"/.	c #FEFE31",
"(.	c #FCFB2F",
"_.	c #DAD80D",
":.	c #ADAB08",
"<.	c #191702",
"[.	c #393909",
"}.	c #FDFC30",
"|.	c #6E6D05",
"1.	c #747413",
"2.	c #363502",
"3.	c #BDBC1E",
"4.	c #D9D70C",
"5.	c #D4D20A",
"6.	c #242401",
"7.	c #EDED24",
"8.	c #AAA908",
"9.	c #1B1B02",
"0.	c #3A3A08",
"a.	c #E0DF13",
"b.	c #DFDD12",
"c.	c #DDDC10",
"d.	c #DCDA0F",
"e.	c #DAD90D",
"f.	c #6C6B05",
"g.	c #777711",
"h.	c #E5E318",
"i.	c #E2E015",
"j.	c #353502",
"k.	c #1A1A04",
"l.	c #BCBC1A",
"m.	c #EDED20",
"n.	c #EAE81D",
"o.	c #D3D10A",
"p.	c #252401",
"q.	c #E9E81F",
"r.	c #ECEC1F",
"s.	c #A7A508",
"t.	c #3A3A07",
"u.	c #EBEB1E",
"v.	c #E7E51A",
"w.	c #6A6905",
"x.	c #77770F",
"y.	c #191904",
"z.	c #BBBB17",
"A.	c #E4E217",
"B.	c #D2D00A",
"C.	c #272601",
"D.	c #252504",
"E.	c #E5E41B",
"F.	c #A4A308",
"G.	c #202002",
"H.	c #3B3A06",
"I.	c #E8E61B",
"J.	c #DBDA0E",
"K.	c #676605",
"L.	c #78770C",
"M.	c #E9E71C",
"N.	c #1A1A02",
"O.	c #B9B812",
"P.	c #D0CE0A",
"Q.	c #282701",
"R.	c #252503",
"S.	c #E0DE15",
"T.	c #CCCB11",
"U.	c #C3C210",
"V.	c #979607",
"W.	c #3B3A05",
"X.	c #B7B50F",
"Y.	c #2E2E01",
"Z.	c #5B5A05",
"`.	c #CECC0E",
" +	c #363602",
".+	c #79770A",
"++	c #AFAD0D",
"@+	c #6F6F01",
"#+	c #A2A300",
"$+	c #424202",
"%+	c #8C8B08",
"&+	c #777505",
"*+	c #191902",
"=+	c #B7B50D",
"-+	c #A7A60B",
";+	c #727301",
">+	c #C2C300",
",+	c #636400",
"'+	c #676604",
")+	c #A09F07",
"!+	c #C7C509",
"~+	c #CAC809",
"{+	c #ABAA08",
"]+	c #383902",
"^+	c #DBD90F",
"/+	c #828208",
"(+	c #858600",
"_+	c #BBBC00",
":+	c #BCBD00",
"<+	c #B8BA00",
"[+	c #B3B400",
"}+	c #8E8F00",
"|+	c #666700",
"1+	c #494A01",
"2+	c #3B3B01",
"3+	c #3D3E01",
"4+	c #242502",
"5+	c #3B3A03",
"6+	c #474603",
"7+	c #ADAE00",
"8+	c #B4B500",
"9+	c #B2B300",
"0+	c #A7A900",
"a+	c #A1A200",
"b+	c #9A9B00",
"c+	c #787806",
"d+	c #CDCB0B",
"e+	c #464601",
"f+	c #AAAB00",
"g+	c #ACAD00",
"h+	c #AAAC00",
"i+	c #A7A800",
"j+	c #9C9E00",
"k+	c #1A1900",
"l+	c #B5B408",
"m+	c #8C8B07",
"n+	c #6D6E00",
"o+	c #A3A400",
"p+	c #A4A600",
"q+	c #A1A100",
"r+	c #202001",
"s+	c #D6D40A",
"t+	c #444402",
"u+	c #939400",
"v+	c #9B9D00",
"w+	c #9D9E00",
"x+	c #9D9D00",
"y+	c #2A2902",
"z+	c #3B3A02",
"A+	c #7A7906",
"B+	c #B3B108",
"C+	c #D8D70B",
"D+	c #A9A708",
"E+	c #919300",
"F+	c #949500",
"G+	c #252502",
"H+	c #282802",
"I+	c #403F03",
"J+	c #7C7A05",
"K+	c #B6B408",
"L+	c #393902",
"M+	c #7E8100",
"N+	c #8A8C00",
"O+	c #242402",
"P+	c #807E05",
"Q+	c #B9B709",
"R+	c #555503",
"S+	c #555800",
"T+	c #242202",
"U+	c #414103",
"V+	c #838206",
"W+	c #BCBA09",
"X+	c #CCCA09",
"Y+	c #454603",
"Z+	c #2F2F02",
"`+	c #212102",
" @	c #1D1D01",
".@	c #353402",
"+@	c #343302",
"                                                                                                ",
"                                                                                                ",
"                                                                                                ",
"                                                                                                ",
"                      . + @ #                                                                   ",
"                      $ % & * = - ; >                                                           ",
"                    , ' ) ) ! ! ! ) ~ { ] ^ #                                                   ",
"                    / ! ( _ : : : : _ ! ) < [ } | 1 2                                           ",
"                    3 : 4 5 6 6 6 6 5 : ( ) < % 7 8 9 0 a b c                                   ",
"                    d 5 e f g h h g e 6 4 ( ) < i j 8 k l m n o p q r                           ",
"                  s t f h u v w v v h f 6 4 ( ) % 7 8 x l y z A B C D E F G H                   ",
"                  I e h v J K K K J w h f 5 : ! < i j x k y m A L C M N O P Q R S T H           ",
"                  U g v J K V W V X Y v h e 4 ( Z % j 8 k l m ` L  ...N O P +.@.#.$.%.&.*.=.    ",
"                  -.h w K ;.>.>.>.W X J u f 5 _ ) % 7 8 k l m z L  ...,.'.).+.@.#.$.$.$.$.!.~.  ",
"                {.].u J X W ^./.^.(.V J v f 5 _ ) % 7 8 x l m z L  ...,.'.).+._.#.$.$.$.$.:.<.  ",
"                [.e h J X W }./.^.(.V J v f 5 _ ) % 7 8 x l m z L  ...,.'.).+._.#.$.$.$.$.|.    ",
"                1.e h w K V (.>.>.W K J u f 5 ( ) % 7 8 k l m z L  ...,.O ).+.@.#.$.$.$.$.2.    ",
"                3.6 g v J K V ;.V X Y v h e 4 ( Z % j 8 k l m ` L  ...N O P +.4.#.$.$.$.5.6.    ",
"              s 7.5 e h v J Y K K J v h f 5 : ! < 7 j x k y m A L C M N O P +.4.#.$.$.$.8.9.    ",
"              0.! : 5 f h u v w v v h f 6 : ( Z % 7 8 x l y z A B C a.b.c.d.e.4.$.$.$.$.f.      ",
"              g.) ( : 5 e f g h g f e 6 4 ( ) < i j 8 k l m z h.B i.a.b.).d._.4.$.$.$.$.j.      ",
"            k.l.< ) ( : 4 5 6 6 6 5 4 : ( ) < % m.8 x n.y m A L  ...,.'.).+._.#.$.$.$.o.p.      ",
"            , q.i & Z ! ( _ : : : _ ( ! ) < % 7 r.x k l m z h.B i.a.b.O d.+.4.#.$.$.$.s.H       ",
"            t.8 j 7 % < Z ) ! ! ! ) ) < & i 7 j u.k l y v.A L  ...,.'.).d._.4.$.$.$.$.w.        ",
"            x.x 8 j 7 i % & < < < & % % 7 j 8 x k l y m ` L B i.M N O P +._.#.$.$.$.$.2.        ",
"          y.z.k x 8 8 j m.7 7 7 7 7 7 j j 8 x k l y m z h.A.C ..,.'.).d._.4.#.$.$.$.B.C.        ",
"          D.E.l n.k x 8 8 8 j j j 8 8 8 x k k l y m z A A. ...a.b.O P +._.#.$.$.$.$.F.G.        ",
"          H.z m y l n.k k x x x x x x k k l y I.m z A A. .i.a.N O ).J._.4.$.$.$.$.$.K.          ",
"          L.A z m m y M.l l l n.n.l l l y y m z A h.A. .i.a.N '.).d.+.4.#.$.$.$.$.$.2.          ",
"        N.O.L h.A z v.m m y y y y y I.m m z ` A L B C ..a.N '.c.d.+._.#.$.$.$.$.$.P.Q.          ",
"        R.S. .B L h.A ` z z z z z z z ` A h.L A. .C ..T.U.'.c.d.+._.4.$.$.$.$.$.$.V.            ",
"        W.a...C  .B A.L L h.A A A h.h.L A.B  .C ..M ,.X.Y.Z.`.+._.4.#.$.$.$.$.$.$. +            ",
"        .+N ,.M ..i.C  .B B B B B B B  .C i...M a.N b.++@+#+$+%+4.#.$.$.$.$.$.$.&+              ",
"      *+=+O '.N ,.a.M ....i.i.i.i.i.....M a.,.N b.O c.-+;+>+>+,+6.'+)+!+$.~+{+]+                ",
"      R.^+P ).O '.b.N ,.,.a.a.a.a.a.,.,.N b.'.O c.).d./+(+_+:+<+[+}+|+1+2+3+4+                  ",
"      5+_.+.d.P ).c.O O '.b.b.b.b.b.'.'.O c.).P d.+.+.6+7+8+8+9+7+0+a+b+                        ",
"      c+4._._.+.J.d.P ).).).).).).).).).P d.J.+.e._.d+e+f+g+g+h+i+#+j+                          ",
"    k+l+#.#.4.@._._.+.+.+.J.d.d.d.J.J.+.+.e._._.4.#.m+n+o+p+p+o+q+                              ",
"    r+s+$.$.$.#.#.4.4.@._._._._._._._._.4.4.4.#.#.$.t+u+v+w+x+                                  ",
"      y+z+A+B+s+$.$.#.#.#.#.C+4.C+#.#.#.#.$.$.$.$.D+1+E+F+                                      ",
"            G+H+I+J+K+$.$.$.$.$.$.$.$.$.$.$.$.$.s+L+M+N+                                        ",
"                    O+H+I+P+Q+$.$.$.$.$.$.$.$.$.R+S+                                            ",
"                            T+H+U+V+W+$.$.$.X+Y+Z+                                              ",
"                                    `+ @.@+@=.                                                  ",
"                                                                                                ",
"                                                                                                ",
"                                                                                                ",
"                                                                                                "};
