/*

Copyright (c) 2002 Nestor Di

This program is free software; you can redistribute it and/or modify
it under the terms of the GNU General Public License as published by
the Free Software Foundation; either version 2 of the License, or
(at your option) any later version.

This program is distributed in the hope that it will be useful,
but WITHOUT ANY WARRANTY; without even the implied warranty of
MERCHANTABILITY or FITNESS FOR A PARTICULAR PURPOSE.  See the
GNU General Public License for more details.

You should have received a copy of the GNU General Public License
along with this program; if not, write to the Free Software
Foundation, Inc., 59 Temple Place, Suite 330, Boston, MA  02111-1307  USA

*/


/* XPM */
static char * xpad_xpm[] = {
"48 48 670 2",
"  	c None",
". 	c #2F333A",
"+ 	c #32343E",
"@ 	c #2C2E33",
"# 	c #2D2F39",
"$ 	c #3C3446",
"% 	c #71465D",
"& 	c #894769",
"* 	c #4D3247",
"= 	c #2E2B38",
"- 	c #332D36",
"; 	c #442738",
"> 	c #9E2F51",
", 	c #FF6CCA",
"' 	c #FFFFFF",
") 	c #F33058",
"! 	c #5C2439",
"~ 	c #2A2C31",
"{ 	c #342936",
"] 	c #602437",
"^ 	c #991F35",
"/ 	c #E63643",
"( 	c #FE3D83",
"_ 	c #FF5DAC",
": 	c #FD3856",
"< 	c #9F3333",
"[ 	c #352938",
"} 	c #2D303A",
"| 	c #000000",
"1 	c #322E37",
"2 	c #532836",
"3 	c #8C273A",
"4 	c #A91937",
"5 	c #C02938",
"6 	c #F54B41",
"7 	c #FF9F40",
"8 	c #FFF03D",
"9 	c #F5BD2A",
"0 	c #3C323A",
"a 	c #282C38",
"b 	c #010100",
"c 	c #505641",
"d 	c #040403",
"e 	c #030403",
"f 	c #000100",
"g 	c #332A36",
"h 	c #682E3A",
"i 	c #93303F",
"j 	c #AF3F30",
"k 	c #CE7D1A",
"l 	c #F4D50B",
"m 	c #FEFE0C",
"n 	c #FFFF2F",
"o 	c #A5A543",
"p 	c #2D3037",
"q 	c #050604",
"r 	c #595F47",
"s 	c #9CA77E",
"t 	c #C3D19D",
"u 	c #88926E",
"v 	c #35392B",
"w 	c #322A36",
"x 	c #5F3039",
"y 	c #9A5345",
"z 	c #C78D26",
"A 	c #F5E704",
"B 	c #FEFD00",
"C 	c #FFFF0B",
"D 	c #FFFF59",
"E 	c #292D3A",
"F 	c #020201",
"G 	c #444A36",
"H 	c #AEBC8B",
"I 	c #C8D8A0",
"J 	c #DEEFB3",
"K 	c #E7F8BB",
"L 	c #E8F8BC",
"M 	c #B4C091",
"N 	c #666D53",
"O 	c #332E37",
"P 	c #533137",
"Q 	c #9C6643",
"R 	c #D1A827",
"S 	c #F5EB07",
"T 	c #FEFE00",
"U 	c #FFFF08",
"V 	c #FFFF28",
"W 	c #FFFF26",
"X 	c #5E6149",
"Y 	c #2D2F36",
"Z 	c #151710",
"` 	c #8E9A6F",
" .	c #D6E8AA",
"..	c #E1F4B4",
"+.	c #E6F7B9",
"@.	c #808967",
"#.	c #323629",
"$.	c #302F36",
"%.	c #3A2E34",
"&.	c #866438",
"*.	c #C89E31",
"=.	c #E6CD16",
"-.	c #FFFF00",
";.	c #FFFF27",
">.	c #FFFF2A",
",.	c #FFFF62",
"'.	c #2B2F39",
").	c #020302",
"!.	c #424832",
"~.	c #BACA90",
"{.	c #DFF1B0",
"].	c #E4F6B7",
"^.	c #E5F7B9",
"/.	c #E7F8BA",
"(.	c #676E54",
"_.	c #2A2B35",
":.	c #444231",
"<.	c #BF943C",
"[.	c #D9B623",
"}.	c #F9F604",
"|.	c #FFFF1F",
"1.	c #FFFF35",
"2.	c #33394B",
"3.	c #212327",
"4.	c #15180F",
"5.	c #839062",
"6.	c #CEE29E",
"7.	c #DDF1AD",
"8.	c #DDEFAE",
"9.	c #DFF1B1",
"0.	c #E3F4B6",
"a.	c #E7F7BB",
"b.	c #33372A",
"c.	c #2D3034",
"d.	c #9C7E35",
"e.	c #CEA72F",
"f.	c #EBD512",
"g.	c #FFFF18",
"h.	c #FFFF25",
"i.	c #A6AB56",
"j.	c #292D3B",
"k.	c #2C2E37",
"l.	c #040503",
"m.	c #1B1F13",
"n.	c #636F47",
"o.	c #B4C785",
"p.	c #D2E69E",
"q.	c #D4E8A3",
"r.	c #D8EBA8",
"s.	c #DBEEAC",
"t.	c #E0F1B1",
"u.	c #E6F6B8",
"v.	c #666D52",
"w.	c #2E3039",
"x.	c #77672F",
"y.	c #C3993A",
"z.	c #DCBC21",
"A.	c #F9F304",
"B.	c #FFFF05",
"C.	c #FEFE46",
"D.	c #2E3240",
"E.	c #2A2E23",
"F.	c #565F3E",
"G.	c #85955F",
"H.	c #A9BD79",
"I.	c #BFD48C",
"J.	c #C8DE95",
"K.	c #CEE39B",
"L.	c #D4E8A4",
"M.	c #DAEDAB",
"N.	c #E1F2B2",
"O.	c #E7F7BA",
"P.	c #E4F4B9",
"Q.	c #B5C192",
"R.	c #1B1D16",
"S.	c #3E4031",
"T.	c #B98F44",
"U.	c #D0AA2D",
"V.	c #EEDC0F",
"W.	c #FCFB01",
"X.	c #FFFF23",
"Y.	c #FFFF15",
"Z.	c #63674F",
"`.	c #3F443F",
" +	c #AFC37E",
".+	c #B6CA82",
"++	c #B5C981",
"@+	c #B8CD84",
"#+	c #C1D68D",
"$+	c #C9DE95",
"%+	c #D0E49E",
"&+	c #D9ECA9",
"*+	c #E3F4B5",
"=+	c #E6F6BA",
"-+	c #BFCC9A",
";+	c #414432",
">+	c #050503",
",+	c #917636",
"'+	c #C59B38",
")+	c #E0C11D",
"!+	c #F7EF06",
"~+	c #E8E94F",
"{+	c #2B2F3C",
"]+	c #C7DD91",
"^+	c #BCD087",
"/+	c #B8CD85",
"(+	c #BACF87",
"_+	c #C1D68E",
":+	c #CBE099",
"<+	c #DAEEA7",
"[+	c #DEF1AD",
"}+	c #E5F5B7",
"|+	c #D2DFA6",
"1+	c #545433",
"2+	c #060604",
"3+	c #645B2F",
"4+	c #BC9141",
"5+	c #D3AD2A",
"6+	c #F0E00D",
"7+	c #FBF80F",
"8+	c #FFFF29",
"9+	c #FFFF1C",
"0+	c #404454",
"a+	c #7D8769",
"b+	c #D1E49E",
"c+	c #CBE197",
"d+	c #C1D78F",
"e+	c #BED38B",
"f+	c #C5D992",
"g+	c #D1E59E",
"h+	c #D9EDA8",
"i+	c #DFF1AF",
"j+	c #E5F5B8",
"k+	c #A6A665",
"l+	c #7B7B48",
"m+	c #1C1C10",
"n+	c #2B2D33",
"o+	c #B2894B",
"p+	c #C89E35",
"q+	c #E2C61B",
"r+	c #F5EC08",
"s+	c #FFFF0E",
"t+	c #989B57",
"u+	c #34363D",
"v+	c #E0F0B2",
"w+	c #DEF0AD",
"x+	c #D4E9A2",
"y+	c #CCE19A",
"z+	c #C6DA94",
"A+	c #C6DB93",
"B+	c #CCE099",
"C+	c #D5E9A3",
"D+	c #DBEEAA",
"E+	c #E2F5B1",
"F+	c #C2C980",
"G+	c #A9AA63",
"H+	c #979757",
"I+	c #2E2E1B",
"J+	c #010101",
"K+	c #816C34",
"L+	c #BD9340",
"M+	c #D6B127",
"N+	c #F9F61F",
"O+	c #FFFF32",
"P+	c #AFBB92",
"Q+	c #E6F6B9",
"R+	c #E0F2B3",
"S+	c #D7EAA4",
"T+	c #CFE49C",
"U+	c #D3E7A1",
"V+	c #D8EBA6",
"W+	c #E0F4AF",
"X+	c #D3DA9C",
"Y+	c #B5B771",
"Z+	c #A5A562",
"`+	c #959558",
" @	c #30301C",
".@	c #010102",
"+@	c #08090C",
"@@	c #2C2F37",
"#@	c #524F2F",
"$@	c #B58B48",
"%@	c #C9A134",
"&@	c #E5CA18",
"*@	c #F4E810",
"=@	c #FCFC2A",
"-@	c #4F553F",
";@	c #4D514D",
">@	c #E4F5B8",
",@	c #E4F4B7",
"'@	c #E1F3B1",
")@	c #DAEDA9",
"!@	c #D7EBA4",
"~@	c #D8ECA4",
"{@	c #DCEFAA",
"]@	c #E3F6B1",
"^@	c #DAE4A7",
"/@	c #B9BC76",
"(@	c #AEAF68",
"_@	c #A4A45E",
":@	c #949456",
"<@	c #404026",
"[@	c #010202",
"}@	c #282A31",
"|@	c #A47F47",
"1@	c #BF953E",
"2@	c #D8B525",
"3@	c #F7F727",
"4@	c #C6CA2F",
"5@	c #E4F5B7",
"6@	c #E4F4B6",
"7@	c #E0F2B0",
"8@	c #E1F4AF",
"9@	c #E2F4B1",
"0@	c #E5F6B5",
"a@	c #E1EFB2",
"b@	c #BFC27F",
"c@	c #B1B26B",
"d@	c #A3A45E",
"e@	c #969658",
"f@	c #616138",
"g@	c #0A0B0E",
"h@	c #252833",
"i@	c #736332",
"j@	c #B68C47",
"k@	c #CCA431",
"l@	c #E6CC17",
"m@	c #F2EE15",
"n@	c #FFFF13",
"o@	c #2E3242",
"p@	c #848C72",
"q@	c #E2F0B3",
"r@	c #C8CF8F",
"s@	c #B7B875",
"t@	c #AFAF67",
"u@	c #AAAA63",
"v@	c #A5A561",
"w@	c #A0A05D",
"x@	c #626239",
"y@	c #020203",
"z@	c #0B0D10",
"A@	c #20232D",
"B@	c #242833",
"C@	c #292B32",
"D@	c #AE864F",
"E@	c #C1973C",
"F@	c #DBB922",
"G@	c #EDDE10",
"H@	c #F7F61F",
"I@	c #75773A",
"J@	c #34373D",
"K@	c #CED595",
"L@	c #BEC07E",
"M@	c #B3B46F",
"N@	c #AEAE68",
"O@	c #ABAB64",
"P@	c #A8A862",
"Q@	c #646439",
"R@	c #0D0E12",
"S@	c #21252F",
"T@	c #232731",
"U@	c #1A1C21",
"V@	c #8C703C",
"W@	c #B88E45",
"X@	c #CEA62F",
"Y@	c #E6CD17",
"Z@	c #F0EB11",
"`@	c #FAFA1E",
" #	c #F0E82E",
".#	c #CED597",
"+#	c #C1C482",
"@#	c #B6B772",
"##	c #B2B26F",
"$#	c #ABAB62",
"%#	c #A6A660",
"&#	c #65653A",
"*#	c #0E0F13",
"=#	c #222530",
"-#	c #232631",
";#	c #12141A",
">#	c #2B2D37",
",#	c #524E2F",
"'#	c #AF874E",
")#	c #C29839",
"!#	c #DBB924",
"~#	c #E8D51F",
"{#	c #F1E835",
"]#	c #F8F151",
"^#	c #F0E44E",
"/#	c #31333C",
"(#	c #4A4E4B",
"_#	c #C0C281",
":#	c #BABA76",
"<#	c #B7B772",
"[#	c #B5B571",
"}#	c #B0B06A",
"|#	c #AEAE65",
"1#	c #ACAC63",
"2#	c #80804A",
"3#	c #000001",
"4#	c #040405",
"5#	c #111318",
"6#	c #121419",
"7#	c #191A1E",
"8#	c #9F7C4C",
"9#	c #B99048",
"0#	c #CFA943",
"a#	c #DBBD5A",
"b#	c #DAB87A",
"c#	c #DBB683",
"d#	c #DFBA82",
"e#	c #E1C077",
"f#	c #AE9E4E",
"g#	c #2A2D38",
"h#	c #2F323B",
"i#	c #DEEEB4",
"j#	c #C0C282",
"k#	c #BBBB7B",
"l#	c #B8B876",
"m#	c #B8B874",
"n#	c #B3B36F",
"o#	c #B1B16A",
"p#	c #ADAD66",
"q#	c #979758",
"r#	c #12120A",
"s#	c #020303",
"t#	c #0D0E13",
"u#	c #1F222C",
"v#	c #272B36",
"w#	c #242732",
"x#	c #13151B",
"y#	c #08090B",
"z#	c #75643A",
"A#	c #B38F60",
"B#	c #C7A572",
"C#	c #D1AF8A",
"D#	c #D5B18D",
"E#	c #D8B38B",
"F#	c #DBB688",
"G#	c #DFBA81",
"H#	c #D9BC69",
"I#	c #D7E5A8",
"J#	c #DCEBB2",
"K#	c #C2C585",
"L#	c #BCBC7D",
"M#	c #BFBF7E",
"N#	c #BCBC78",
"O#	c #B1B16B",
"P#	c #ADAD68",
"Q#	c #9B9B5C",
"R#	c #0B0C0F",
"S#	c #1C1F27",
"T#	c #262A35",
"U#	c #252935",
"V#	c #1A1D25",
"W#	c #0C0D11",
"X#	c #26272D",
"Y#	c #444336",
"Z#	c #B5997F",
"`#	c #C4A790",
" $	c #CDAD94",
".$	c #D4B18F",
"+$	c #D7B28C",
"@$	c #DAB488",
"#$	c #DEB983",
"$$	c #D1B763",
"%$	c #C9D093",
"&$	c #C5D09A",
"*$	c #D9E8B0",
"=$	c #CCD193",
"-$	c #BEBE7E",
";$	c #BFBF7F",
">$	c #C1C181",
",$	c #B5B572",
"'$	c #ADAD69",
")$	c #939357",
"!$	c #363621",
"~$	c #1B1E26",
"{$	c #252934",
"]$	c #272B37",
"^$	c #191C23",
"/$	c #141519",
"($	c #99846E",
"_$	c #C1A99A",
":$	c #CAAC97",
"<$	c #CFAD90",
"[$	c #C8A785",
"}$	c #C4A37F",
"|$	c #D0AC80",
"1$	c #CFB661",
"2$	c #33353C",
"3$	c #C9D092",
"4$	c #CAD199",
"5$	c #BDC590",
"6$	c #CBD8A2",
"7$	c #D1DFA9",
"8$	c #D7DFA2",
"9$	c #C2C282",
"0$	c #C0C081",
"a$	c #BEBE7F",
"b$	c #B9B976",
"c$	c #B1B16F",
"d$	c #929258",
"e$	c #49492C",
"f$	c #171920",
"g$	c #252834",
"h$	c #1D2029",
"i$	c #292C34",
"j$	c #6A5F4B",
"k$	c #B7A192",
"l$	c #C5AA9A",
"m$	c #BA9D87",
"n$	c #86705B",
"o$	c #60503F",
"p$	c #8C7459",
"q$	c #B8A154",
"r$	c #33353B",
"s$	c #C5CD8D",
"t$	c #C6CE95",
"u$	c #CAD198",
"v$	c #C2CA93",
"w$	c #B0B887",
"x$	c #B8C494",
"y$	c #B9C696",
"z$	c #B3BC8C",
"A$	c #C4C484",
"B$	c #C3C383",
"C$	c #BABA7B",
"D$	c #B3B370",
"E$	c #A1A164",
"F$	c #707044",
"G$	c #08080B",
"H$	c #15171D",
"I$	c #222630",
"J$	c #262A36",
"K$	c #25282F",
"L$	c #2E2F38",
"M$	c #70644B",
"N$	c #9D8469",
"O$	c #3F362C",
"P$	c #080705",
"Q$	c #2F271E",
"R$	c #534B27",
"S$	c #31343A",
"T$	c #BDC586",
"U$	c #C7CE90",
"V$	c #D0D99E",
"W$	c #ACB383",
"X$	c #8C936D",
"Y$	c #9FA06E",
"Z$	c #B3B375",
"`$	c #A3A367",
" %	c #9B9B61",
".%	c #050608",
"+%	c #111217",
"@%	c #21242E",
"#%	c #262931",
"$%	c #2B2E38",
"%%	c #272A35",
"&%	c #23252F",
"*%	c #322D1F",
"=%	c #1B1711",
"-%	c #292623",
";%	c #3C3829",
">%	c #20222A",
",%	c #545749",
"'%	c #BEC688",
")%	c #C4CC8F",
"!%	c #CFD699",
"~%	c #D6DEA2",
"{%	c #D7DFA3",
"]%	c #A2A472",
"^%	c #B5B57A",
"/%	c #BDBD7C",
"(%	c #AFAF72",
"_%	c #9E9E66",
":%	c #14140E",
"<%	c #040506",
"[%	c #0C0E11",
"}%	c #1E212B",
"|%	c #24272E",
"1%	c #272934",
"2%	c #1F222A",
"3%	c #28292D",
"4%	c #7B7A74",
"5%	c #888679",
"6%	c #33343C",
"7%	c #56594A",
"8%	c #C4CC8E",
"9%	c #C5CC90",
"0%	c #D4DCA0",
"a%	c #A8AE7F",
"b%	c #95986D",
"c%	c #989866",
"d%	c #BEBE7D",
"e%	c #B1B175",
"f%	c #28291B",
"g%	c #030304",
"h%	c #0B0C10",
"i%	c #23252B",
"j%	c #292C35",
"k%	c #363841",
"l%	c #7C7D81",
"m%	c #7D7E82",
"n%	c #383A43",
"o%	c #535749",
"p%	c #CBD493",
"q%	c #CBD496",
"r%	c #CED598",
"s%	c #D2DA9E",
"t%	c #D4DCA1",
"u%	c #A7AD7F",
"v%	c #7D7F5A",
"w%	c #BFBF80",
"x%	c #3F3F2A",
"y%	c #181B22",
"z%	c #1F222B",
"A%	c #3D3F47",
"B%	c #3A3D47",
"C%	c #2A2E3A",
"D%	c #8A9069",
"E%	c #C4CC91",
"F%	c #D2DA9D",
"G%	c #989E73",
"H%	c #717352",
"I%	c #8A8A5D",
"J%	c #6C6C48",
"K%	c #15171E",
"L%	c #22252F",
"M%	c #171A21",
"N%	c #1B1C20",
"O%	c #2C2F39",
"P%	c #767A57",
"Q%	c #D2D99F",
"R%	c #D8E0A4",
"S%	c #91976E",
"T%	c #64674A",
"U%	c #828258",
"V%	c #101217",
"W%	c #0C0C0C",
"X%	c #0E0F0C",
"Y%	c #323427",
"Z%	c #BFC691",
"`%	c #90966D",
" &	c #5F6348",
".&	c #ADAD74",
"+&	c #1E212A",
"@&	c #121319",
"#&	c #070809",
"$&	c #777B5A",
"%&	c #90956D",
"&&	c #5F6247",
"*&	c #828257",
"=&	c #15150E",
"-&	c #090A0D",
";&	c #1C1F28",
">&	c #313225",
",&	c #606449",
"'&	c #44442F",
")&	c #09090C",
"!&	c #191B23",
"~&	c #08090A",
"{&	c #090908",
"]&	c #1A1C15",
"^&	c #36382C",
"/&	c #0C0D0F",
"(&	c #0E0F12",
"_&	c #0B0D0F",
":&	c #0F1014",
"<&	c #1C1E26",
"                                                                                                ",
"                                                                                                ",
"                . + @                                                                           ",
"            # $ % & * = @                                                                       ",
"        @ - ; > , ' ) ! = ~                                                                     ",
"        { ] ^ / ( _ : < [ }                   | | | | |                                         ",
"      1 2 3 4 5 6 7 8 9 0 a ~               | b c d e f | |                                     ",
"      g h i j k l m ' n o a p             | q r s t u v | f | | |                               ",
"      w x y z A B C ' ' D E a           | F G H I J K L M N | | | | |                           ",
"      O P Q R S T U V ' W X a Y         | Z `  ...+.L L L L L @.#.| | | | |                     ",
"      $.%.&.*.=.T -.;.' >.,.a '.      | ).!.~.{.].^./.L L L L L L M (.| | f | |                 ",
"      @ _.:.<.[.}.-.|.>.' 1.2.a 3.  | | 4.5.6.7.8.9.0.a.L L L L L L L L @.b.| | | |             ",
"        a c.d.e.f.-.g.>.' h.i.j.k.| l.m.n.o.p.q.r.s.t.u.L L L L L L L L L L M v.| | |           ",
"        w.a x.y.z.A.B.V ' ' C.D.a E.F.G.H.I.J.K.L.M.N.O.L L L L L L L L L L L P.Q.R.b           ",
"        Y a S.T.U.V.W.X.>.' Y.Z.a `. +.+++@+#+$+%+&+*+L L L L L L L L L L L L =+-+;+>+|         ",
"          a a ,+'+)+!+|.>.' ' ~+{+'.]+I.^+/+(+_+:+<+[+}+=+L L L L L L L L L L L |+1+2+|         ",
"          w.a 3+4+5+6+7+8+>.' 9+0+a a+b+c+d+e+I.f+g+h+i+j+L L L L L L L L L L L k+l+m+|         ",
"          n+a a o+p+q+r+;.>.' s+t+a u+v+w+x+y+z+A+B+C+D+E+L L L L L L L L L L F+G+H+I+J+        ",
"            a a K+L+M+6+N+>.' ' O+a a P+Q+R+&+S+T+T+U+V+W+K L L L L L L L L X+Y+Z+`+ @.@+@      ",
"            @@a #@$@%@&@*@=@>.' s+-@a ;@L >@,@'@)@!@~@{@]@K L L L L L L =+^@/@(@_@:@<@[@+@      ",
"            }@a a |@1@2@V.3@>.' ' 4@a '.=+=+=+5@6@7@8@9@0@L L L L L L =+a@b@c@G+d@e@f@[@g@      ",
"            h@'.a i@j@k@l@m@=@>.' n@o@a p@L L =+L L L L L L L L L L =+q@r@s@t@u@v@w@x@y@z@A@    ",
"            B@C@a S.D@E@F@G@H@8+' n@I@a J@L L L L L L L L L L L L a.=+K@L@M@N@O@P@_@Q@y@R@S@a   ",
"          a T@U@a a V@W@X@Y@Z@`@' '  #a a L L L L L L L L L L L L =+.#+#@###N@O@$#%#&#y@*#=#a   ",
"        a a -#;#>#a ,#'#)#!#~#{#]#' ^#/#a (#L L L L L L L L L L =+^@_#:#<#[#}#|#1#2#3#4#5#-#a a ",
"        a a T@6#7#a a 8#9#0#a#b#c#d#e#f#g#h#i#L L L L L L L L =+q@j#k#l#m#n#o#p#q#r#s#t#u#v#a a ",
"        a a w#x#y#'.a z#A#B#C#D#E#F#G#H#g#a I#J#J#L L L L L a.q@K#L#M#N#[#O#P#Q#r#y@R#S#T#a a   ",
"      a a a U#V#W#X#a Y#Z#`# $.$+$@$#$$$a '.%$&$*$*$L L L L a.=$-$;$>$N#,$'$)$!$y@g@~${$a a     ",
"      a a a ]$w#^$/$a a ($_$:$<$[$}$|$1$a 2$3$4$5$6$7$7$L L 8$9$0$9$a$b$c$d$e$y@+@f$B@a a       ",
"      a a a a ]$g$h$i$a j$k$l$m$n$o$p$q$]$r$s$t$u$v$w$x$y$z$A$B$B$0$C$D$E$F$y@G$H$I$]$a         ",
"        a a a a a J$K$a a L$M$N$O$P$Q$R$-#S$T$U$V$v$v$W$X$Y$A$A$9$-$Z$`$ %y@.%+%@%]$a           ",
"          a a a a a ]$#%$%a %%&%*%=%-%;%>%,%'%)%!%~%{%W$W$]%^%B$9$/%(%_%:%<%[%}%v#a             ",
"            a a a a a ]$U#|%$%1%2%3%4%5%6%7%8%9%.#0%~%{%a%b%c%B$0$d%e%f%g%h%~$T#a               ",
"                a a a a a J$-#i%j%k%l%m%n%o%p%q%r%s%t%{%u%v%c%B$B$w%x%.@+@y%B@a                 ",
"                    a a a a ]${$z%3.A%B%C%D%E%F%s%t%~%{%G%H%I%A$B$J%3#.%K%-#]$                  ",
"                        a a a a J$L%M%N%O%J+P%Q%{%{%{%R%S%T%U%A$U%| 4#V%@%]$                    ",
"                          a a a a ]$B@S#W#W%X%Y%Z%R%R%R%`% &U%.&| y@*#z%v#                      ",
"                              a a a ]${$+&@&#&.@| $&R%R%%&&&*&=&[@-&;&J$                        ",
"                                  a a ]$U#@%y%R#g%J+>&u%%&,&'&<%)&!&{$                          ",
"                                    a a ]$]${$z%@&~&{&g%]&^&/&(&K%I$                            ",
"                                        a a a J$L%!&*#R#_&:&x#M%@%                              ",
"                                            a a v#B@@%+&~$<&;&I$                                ",
"                                                a a ]$J$U#{${$                                  ",
"                                                    a a a                                       ",
"                                                                                                ",
"                                                                                                ",
"                                                                                                ",
"                                                                                                "};
